X: 5
T: Far From Home
R: reel
M: 4/4
L: 1/8
K: Gmaj
|:D|"G"GEDE G2GA|B2BA Bcd2|"C"GEDE G2GB|"D"AGAB AGE2|
"G"GEDE G2GA|B2BA Bcd2|"C"edef gedc|"D"BGAF "G"G3:|
|:d|:"Em"g2ge "D"f2fd|"C"edef edB2|"G"gedB G2B2|"C"AGAB "D"AGE2 |
"G"GEDE G2GA|B2BA Bcd2|"C"edef gedc|"D"BGAF "G"G3:||

%%newpage
%% header "Pizza Wizards - Julia Delaney's / Superfly		$P"

